icons/svg/camera-iris.svg

﻿<?xml version="1.0" encoding="utf-8"?>
<!DOCTYPE svg PUBLIC "-//W3C//DTD SVG 1.1//EN" "http://www.w3.org/Graphics/SVG/1.1/DTD/svg11.dtd">
<svg xmlns="http://www.w3.org/2000/svg" xmlns:xlink="http://www.w3.org/1999/xlink" version="1.1" baseProfile="full" width="24" height="24" viewBox="0 0 24.00 24.00" enable-background="new 0 0 24.00 24.00" xml:space="preserve">
	<path fill="#000000" fill-opacity="1" stroke-width="0.2" stroke-linejoin="round" d="M 13.7313,14.9981L 9.8303,21.7551C 10.5293,21.9101 11.2533,21.9981 11.9993,21.9981C 14.3973,21.9981 16.5963,21.1521 18.3193,19.7451L 14.6553,13.3981M 2.4583,14.9981C 3.3773,17.9221 5.6063,20.2571 8.4543,21.3391L 12.1153,14.9981M 8.5353,11.9981L 4.6373,5.24706C 3.0043,7.02706 1.9993,9.39206 1.9993,11.9981C 1.9993,12.6831 2.0693,13.3521 2.2003,13.9981L 9.6903,13.9981M 21.7983,9.99807L 14.3083,9.99807L 14.5973,10.4981L 19.3613,18.7491C 20.9943,16.9691 21.9993,14.6041 21.9993,11.9981C 21.9993,11.3131 21.9293,10.6441 21.7983,9.99807 Z M 21.5403,8.99807C 20.6213,6.07406 18.3923,3.73907 15.5453,2.65706L 11.8843,8.99807M 9.4013,10.4981L 14.1683,2.24108C 13.4693,2.08608 12.7453,1.99807 11.9993,1.99807C 9.6013,1.99807 7.4023,2.84408 5.6793,4.25106L 9.3433,10.5981L 9.4013,10.4981 Z "/>
</svg>

<svg xmlns="http://www.w3.org/2000/svg" version="1.1" baseProfile="full" width="24" height="24" viewBox="0 0 24.00 24.00" xml:space="preserve"><path fill="#000" fill-opacity="1" stroke-width=".2" stroke-linejoin="round" d="M13.73 14.998l-3.9 6.757c.7.155 1.423.243 2.17.243 2.397 0 4.596-.846 6.32-2.253l-3.665-6.347m-12.197 1.6c.92 2.924 3.148 5.26 5.996 6.34l3.66-6.34m-3.58-3l-3.897-6.75C3.004 7.027 2 9.39 2 11.997c0 .685.07 1.354.2 2h7.49m12.108-4h-7.49l.29.5 4.763 8.25C20.995 16.97 22 14.605 22 12c0-.685-.07-1.354-.202-2zm-.258-1c-.92-2.924-3.148-5.26-5.995-6.34l-3.66 6.34m-2.484 1.5L14.17 2.24c-.7-.154-1.423-.242-2.17-.242-2.397 0-4.596.846-6.32 2.253L9.344 10.6l.058-.1z"/></svg>
